src/assets/images/verify.svg

<svg width="20" height="20" viewBox="0 0 20 20" fill="none" xmlns="http://www.w3.org/2000/svg">
<path d="M10.5287 20H9.47133L6.98436 17.4386H3.30603L2.51675 16.694V13.0901L0 10.5287V9.47133L2.51675 6.9099V3.29114L3.30603 2.54654H6.98436L9.47133 0H10.5287L13.0901 2.54654H16.7089L17.4535 3.27625V6.9099L20 9.47133V10.5287L17.4088 13.0901V16.694L16.6642 17.4386H13.0901L10.5287 20Z" fill="#0073FF"/>
<path fill-rule="evenodd" clip-rule="evenodd" d="M15.5439 6.53706C15.8814 6.89707 15.8632 7.46252 15.5031 7.80003L9.14922 13.7568C8.81411 14.071 8.2954 14.0799 7.94971 13.7774L4.77274 10.9976C4.40136 10.6726 4.36373 10.1081 4.68869 9.73675C5.01365 9.36537 5.57814 9.32774 5.94952 9.6527L8.51741 11.8996L14.2809 6.49632C14.6409 6.15881 15.2064 6.17705 15.5439 6.53706Z" fill="white"/>
</svg>

<svg width="20" height="20" fill="none" xmlns="http://www.w3.org/2000/svg"><path d="M10.529 20H9.47l-2.487-2.561H3.306l-.79-.745V13.09L0 10.53V9.47L2.517 6.91V3.29l.789-.744h3.678L9.471 0h1.058l2.561 2.547h3.619l.744.73V6.91L20 9.47v1.058l-2.591 2.561v3.604l-.745.745H13.09L10.53 20Z" fill="#0073FF"/><path fill-rule="evenodd" clip-rule="evenodd" d="M15.544 6.537c.337.36.32.926-.04 1.263l-6.355 5.957a.893.893 0 0 1-1.2.02l-3.176-2.78A.894.894 0 0 1 5.95 9.654L8.517 11.9l5.764-5.404a.894.894 0 0 1 1.263.041Z" fill="#fff"/></svg>
